X: 020845
T: Ballinamore
S: "First Collection of Traditional Irish Music" (M.Mulvihill)
Z: B.Black
L: 1/8
M: 4/4
R: reel
K: G
D|: G2 BG EFGE|(3FED FA dAFA|G2 BG EFGA|BGAF GE (3EDE|
G2 BG EFGE|(3FED FA dAFA|G2 BG EFGA|BGAF GE E2 :|
eB (3BAB efge|fefg afdf|eB (3BAB efge|fedf e3 f|
eB (3BAB efge|fefg afdf|eB (3BAB dBAB|d3 e fdAF||
